<?xml version="1.0" encoding="UTF-8"?>
<map version="1.10" tiledversion="1.12.2" orientation="orthogonal" renderorder="right-down" width="20" height="20" tilewidth="16" tileheight="16" infinite="0" nextlayerid="2" nextobjectid="1">
 <editorsettings>
  <export target="main.lua" format="lua"/>
 </editorsettings>
 <tileset firstgid="1" source="dungeon tiles.tsx"/>
 <layer id="1" name="Tile Layer 1" width="20" height="20">
  <data encoding="csv">
21,6,6,6,6,23,0,0,0,0,0,0,0,0,0,0,0,0,0,0,
20,10,11,11,11,24,0,0,0,0,0,0,0,0,0,0,0,0,0,0,
20,9,14,14,7,6,6,0,0,0,0,0,0,0,0,6,6,6,6,23,
20,9,7,12,3,11,11,6,6,6,6,6,18,18,18,7,7,7,7,24,
0,22,7,3,3,3,7,7,7,7,7,7,7,7,7,7,7,7,7,24,
0,1,7,7,7,7,7,7,14,7,7,7,5,5,5,7,7,7,7,24,
0,1,22,22,12,22,22,7,7,7,7,7,1,0,1,7,7,7,7,24,
0,0,1,12,8,8,1,7,7,7,7,7,1,0,0,13,13,7,13,24,
0,0,0,22,22,22,0,22,22,22,22,22,0,0,0,0,1,7,1,24,
0,0,0,0,0,6,6,0,0,0,0,0,0,0,0,1,1,7,1,24,
0,0,0,0,1,11,11,1,6,6,6,6,6,6,1,7,7,7,7,24,
0,0,0,0,1,7,7,1,11,11,11,11,11,11,7,7,7,7,7,24,
0,0,21,6,6,7,7,7,7,7,7,8,3,7,1,7,7,7,7,24,
0,0,20,10,11,7,7,7,7,7,7,8,3,7,1,13,13,13,13,24,
0,0,20,9,8,7,7,7,7,7,12,7,7,7,1,0,0,0,0,0,
0,0,20,9,8,7,3,3,7,7,7,7,7,7,1,0,0,0,0,0,
0,0,20,9,7,7,7,7,12,7,7,7,7,7,1,0,0,0,0,0,
0,0,20,9,7,7,12,7,7,7,8,8,7,7,1,0,0,0,0,0,
0,0,20,9,7,7,7,7,7,7,8,3,3,7,1,0,0,0,0,0,
0,0,0,22,22,22,22,22,22,22,22,22,22,22,1,0,0,0,0,0
</data>
 </layer>
</map>
